polaris-icons/icons/newicons/CirclePlusMajor.svg

<svg width="20" height="20" viewBox="0 0 20 20" fill="none" xmlns="http://www.w3.org/2000/svg">
<path d="M6 10C6 9.58579 6.33579 9.25 6.75 9.25H9.25V6.75C9.25 6.33579 9.58579 6 10 6C10.4142 6 10.75 6.33579 10.75 6.75V9.25H13.25C13.6642 9.25 14 9.58579 14 10C14 10.4142 13.6642 10.75 13.25 10.75H10.75V13.25C10.75 13.6642 10.4142 14 10 14C9.58579 14 9.25 13.6642 9.25 13.25V10.75H6.75C6.33579 10.75 6 10.4142 6 10Z" fill="black"/>
<path fill-rule="evenodd" clip-rule="evenodd" d="M10 18C14.4183 18 18 14.4183 18 10C18 5.58172 14.4183 2 10 2C5.58172 2 2 5.58172 2 10C2 14.4183 5.58172 18 10 18ZM10 16.5C13.5899 16.5 16.5 13.5899 16.5 10C16.5 6.41015 13.5899 3.5 10 3.5C6.41015 3.5 3.5 6.41015 3.5 10C3.5 13.5899 6.41015 16.5 10 16.5Z" fill="black"/>
</svg>

<svg viewBox="0 0 20 20" fill="none" xmlns="http://www.w3.org/2000/svg"><path d="M6 10a.75.75 0 0 1 .75-.75h2.5v-2.5a.75.75 0 0 1 1.5 0v2.5h2.5a.75.75 0 0 1 0 1.5h-2.5v2.5a.75.75 0 0 1-1.5 0v-2.5h-2.5a.75.75 0 0 1-.75-.75Z" fill="#000"/><path fill-rule="evenodd" clip-rule="evenodd" d="M10 18a8 8 0 1 0 0-16 8 8 0 0 0 0 16Zm0-1.5a6.5 6.5 0 1 0 0-13 6.5 6.5 0 0 0 0 13Z" fill="#000"/></svg>
